X: 26378
T: Merry Blacksmith, The
R: reel
M: 4/4
K: Dmajor
|:d2dA BAFA-|ABdA BAFA-|ABde f2ed|Beed egfe|
d2dA BAFA-|ABdA BAFA-|ABde fdec|dBAG FD D2:|
|:a2 ag f2 fe|d2 dA BAFA-|ABde f2ed|Beed egfg|
a2 ag fgfe|d2 dA BAFA-|ABde fdec|dBAG FD D2:|

